X: 14534
T: Gan Ainm
R: reel
M: 4/4
K: Amixolydian
|:af|ecca ccaf|ecca BBaf|ecca ccaf|ecdB A2:|
|:gf|eBBg BBaf|ecca ccgf|eBBg BBaf|ecdB A2:|
|:af|ecca ccaf|eaca BBaf|eada ccaf|ecdB A2:|

